X: 1
T:The Hunter's House
R:Reel
C:Ed Reavy
Z: transcribed by Bil 3/00
M:2/2
L:1/8
Z:Joe Reavy
N:It would be furnished with every evidence
N:of the prize game he caught.
N:It would be a place where the best men
N:would choose to gather and listen
N:to Ireland's finest players. This is the
N:setting Ed provides for this
N:most popular of his tunes.
K:G
A|:Bd (3dcd =cAFA|G2 BG dGBG|Bd (3d^cd =cAFA|GBAG FDCA,|
DGBG cAFA|BGAF GABc|defg agfd|cAFA G2 GA:||B2 gB aBgB|
(3BBB gf edcB|A2 ad bdbd|(3ddd af gfed|B2 gB aBgB|
(3BBB gf edcB|cBAg fdBd|cAFA BGGA|B2 gB aBgB|
(3BBB gf edcB|A2 ad bdad|(3ddd af gfed|B2 gB aBgB|
(3BBB gf edcB|cBAg fgaf|gdBd cAFA:||
